X: 26031
T: Mazurka Des Écoliers De Saint Genest
R: mazurka
M: 3/4
K: Eminor
|:E F>E|"Em" B2 B>c d>e|B3B c>B|"D" A2 B>A G>F|"Em" G2 E>E F>E|
"Em" B2 B>c d>e|B3B c>B|"D" A2 B>A G>F|"Em" E3:|
E e>d|:"Am" c2 c>B c>d|"C" e3 e d>c|"G" B2 B>A B>c|"Em" B2 E>E e>d|
"Am" c2 c>B c>d|"C" e3 e d>c|"G" B2 A>G F>G|1 "Em" E3 E e>d:|2 "Em" E3||

